images/icons/search_2.svg

<svg xmlns="http://www.w3.org/2000/svg" width="16.687" height="22.812" viewBox="0 0 16.687 22.812"><defs><style>.cls-1{fill:#23839e;fill-rule:evenodd}</style></defs><path id="Doc" class="cls-1" d="M489.986 162.391h-15.4a.66.66 0 0 1-.647-.671v-21.453a.659.659 0 0 1 .647-.67h2.318a.67.67 0 0 1 0 1.34h-1.67v20.113h14.1v-20.113h-9.818a.67.67 0 0 1 0-1.34h10.465a.659.659 0 0 1 .648.67v21.453a.66.66 0 0 1-.643.671zm-3.07-14.5h-9.066a.537.537 0 0 1 0-1.073h9.066a.537.537 0 0 1 0 1.073zm-.177 2.98h-8.712a.537.537 0 0 1 0-1.073h8.712a.537.537 0 0 1 0 1.073zm-3.687 2.98H478.2a.536.536 0 0 1 0-1.072h4.848a.536.536 0 0 1 .004 1.072zm3.687 0h-1.518a.536.536 0 0 1 0-1.072h1.518a.536.536 0 0 1 0 1.072z" transform="translate(-473.938 -139.594)"/></svg>

<svg xmlns="http://www.w3.org/2000/svg" width="16.687" height="22.812" viewBox="0 0 16.687 22.812">
<defs>
    <style>
      .cls-1 {
        fill: #23839e;
        fill-rule: evenodd;
      }
    </style>
  </defs>
  <path id="Doc" class="cls-1" d="M489.986,162.391h-15.4a0.66,0.66,0,0,1-.647-0.671V140.267a0.659,0.659,0,0,1,.647-0.67h2.318a0.67,0.67,0,0,1,0,1.34h-1.67V161.05h14.1V140.937h-9.818a0.67,0.67,0,0,1,0-1.34h10.465a0.659,0.659,0,0,1,.648.67V161.72A0.66,0.66,0,0,1,489.986,162.391Zm-3.07-14.5H477.85a0.537,0.537,0,0,1,0-1.073h9.066A0.537,0.537,0,0,1,486.916,147.891Zm-0.177,2.98h-8.712a0.537,0.537,0,0,1,0-1.073h8.712A0.537,0.537,0,0,1,486.739,150.871Zm-3.687,2.98H478.2a0.536,0.536,0,0,1,0-1.072h4.848A0.536,0.536,0,0,1,483.052,153.851Zm3.687,0h-1.518a0.536,0.536,0,0,1,0-1.072h1.518A0.536,0.536,0,0,1,486.739,153.851Z" transform="translate(-473.938 -139.594)"/>
</svg>
